svgs/sharp-light/raygun.svg

<svg xmlns="http://www.w3.org/2000/svg" viewBox="0 0 576 512"><!--! Font Awesome Pro 6.6.0 by @fontawesome - https://fontawesome.com License - https://fontawesome.com/license (Commercial License) Copyright 2024 Fonticons, Inc. --><path d="M32 95.2l0 2.5C12.2 117.8 0 145.5 0 176c0 61.9 50.1 112 112 112L46.3 419.4 32 448l28.6 14.3 70.8 35.4L160 512l14.3-28.6L272 288l48 0 0 16 0 16 32 0 0-16 0-16 0-32 0-64 32 0 0 80 0 16 32 0 0-16 0-80 32 0 0 9.9 8.8 4.4 96 48L576 265.9l0-25.9 0-128 0-25.9L552.8 97.7l-96 48-8.8 4.4 0 9.9-32 0 0-80 0-16-32 0 0 16 0 80-32 0 0-64 0-32 0-16 0-16-32 0 0 16 0 16L198.4 64l-11.8-4.5L64 12.3 32 0l0 34.3 0 60.9zM64 46.6L109.3 64s0 0 0 0C93.1 64.4 77.8 68.2 64 74.8l0-28.2zM110.5 64c-.4 0-.8 0-1.1 0l1.1 0zM480 182.1l0-12.2 64-32 0 76.2-64-32zM320 176l0 80-32 0-35.8 0L128 256l-16 0c-44.2 0-80-35.8-80-80s35.8-80 80-80l208 0 0 80zM147.8 288l88.4 0L145.7 469.1 74.9 433.7 147.8 288zM112 192a16 16 0 1 0 0-32 16 16 0 1 0 0 32zm80-16a16 16 0 1 0 -32 0 16 16 0 1 0 32 0zm48 16a16 16 0 1 0 0-32 16 16 0 1 0 0 32z"/></svg>

<svg xmlns="http://www.w3.org/2000/svg" viewBox="0 0 576 512"><!--! Font Awesome Pro 6.4.2 by @fontawesome - https://fontawesome.com License - https://fontawesome.com/license (Commercial License) Copyright 2023 Fonticons, Inc. --><path d="M32 95.2v2.5C12.2 117.8 0 145.5 0 176c0 61.9 50.1 112 112 112L46.3 419.4 32 448l28.6 14.3 70.8 35.4L160 512l14.3-28.6L272 288h48v16 16h32V304 288 256 192h32v80 16h32V272 192h32v9.9l8.8 4.4 96 48L576 265.9V240 112 86.1L552.8 97.7l-96 48-8.8 4.4V160H416V80 64H384V80v80H352V96 64 48 32H320V48 64H198.4l-11.8-4.5L64 12.3 32 0V34.3 95.2zM64 46.6L109.3 64l0 0C93.1 64.4 77.8 68.2 64 74.8V46.6zM110.5 64c-.4 0-.8 0-1.1 0l1.1 0zM480 182.1V169.9l64-32v76.2l-64-32zM320 176v80l-32 0H252.2 128l-16 0c-44.2 0-80-35.8-80-80s35.8-80 80-80H320v80zM147.8 288h88.4L145.7 469.1 74.9 433.7 147.8 288zM112 192a16 16 0 1 0 0-32 16 16 0 1 0 0 32zm80-16a16 16 0 1 0 -32 0 16 16 0 1 0 32 0zm48 16a16 16 0 1 0 0-32 16 16 0 1 0 0 32z"/></svg>
